public/external-logos/aws-codecommit.svg

<svg xmlns="http://www.w3.org/2000/svg" xmlns:v="http://vecta.io" xmlns:xlink="http://www.w3.org/1999/xlink" viewBox="0 0 74.375 85" stroke="#000" stroke-linecap="round" stroke-linejoin="round" fill="#fff" fill-rule="evenodd" font-family="Roboto" font-size="14px" text-anchor="middle" width="300" height="300"><defs><style type="text/css"></style></defs><use xlink:href="#w_b4SQAOXAopL7_y9zove3.sym" x="2.1875" y="2.5"><title>AWS CodeCommit</title></use><symbol id="w_b4SQAOXAopL7_y9zove3.sym" overflow="visible" v:tags="aws, amazon, developer, tools, codecommit"><title>AWS CodeCommit</title><desc>Hosts Git-based repositories.</desc><g id="j3iknx991o5" class="Group.cls" transform="translate(0 0)" v:size="74.375,85,2.1875,2.5"><g id="j3iknx631n9" transform="translate(0 11.9219)"><path d="M 9.7543 56.0879 L 0 51.4537 L 0 4.6049 L 9.7543 0 L 23.196 28.8098 L 9.7543 56.0879 Z" fill="#4b612c" stroke="none"></path></g><g id="j3iknx6c1na" transform="translate(9.7543 11.9219)"><path d="M 32.219 8.205 L 0 0 L 0 56.0879 L 32.219 47.5707 L 32.219 8.205 Z" fill="#759c3e" stroke="none"></path></g><g id="j3iknx6i1nb" transform="translate(56.857 26.8)"><path d="M 0 28.5073 L 7.4985 30.8975 L 12.2263 15.4536 L 7.4985 0 L 0 1.0243 L 0 28.5073 Z" fill="#4b612c" stroke="none"></path></g><g id="j3iknx6n1nc" transform="translate(52.4485 11.9805)"><path d="M 11.907 15.2195 L 4.4085 16.1171 L 0 15.2391 L 7.6942 0 L 11.907 15.2195 Z" fill="#3c4929" stroke="none"></path></g><g id="j3iknx6s1nd" transform="translate(52.4485 11.9415)"><path d="M 0 15.2781 L 7.6942 14.3025 L 7.6942 0 L 0 1.961 L 0 15.2781 Z" fill="#4b612c" stroke="none"></path></g><g id="j3iknx6x1ne" transform="translate(27.9238 15.0537)"><path d="M 0 7.0146 L 7.0762 0 L 25.6474 9.639 L 18.7772 10.7025 L 0 7.0146 Z" fill="#3c4929" stroke="none"></path></g><g id="j3iknx741nf" transform="translate(52.4485 52)"><path d="M 11.907 0.8 L 4.4085 0 L 0 0.7804 L 7.6942 16.117 L 11.907 0.8 Z" fill="#b7ca9d" stroke="none"></path></g><g id="j3iknx791ng" transform="translate(52.4485 52.7805)"><path d="M 0 0 L 7.6942 0.9757 L 7.6942 15.3366 L 0 13.3171 L 0 0 Z" fill="#4b612c" stroke="none"></path></g><g id="j3iknx7e1nh" transform="translate(35 0)"><path d="M 18.5712 24.6927 L 0 20.4098 L 0 0 L 18.5712 8.8487 L 18.5712 24.6927 Z" fill="#759c3e" stroke="none"></path></g><g id="j3iknx7i1ni" transform="translate(60.1427 11.9415)"><path d="M 9.8573 4.683 L 0 0 L 0 14.3025 L 9.8573 16.5366 L 9.8573 4.683 Z" fill="#759c3e" stroke="none"></path></g><g id="j3iknx7n1nj" transform="translate(27.9238 54.2439)"><path d="M 0 3.6878 L 7.0762 17.0634 L 25.6474 1.0634 L 18.7772 0 L 0 3.6878 Z" fill="#b7ca9d" stroke="none"></path></g><g id="j3iknx7v1nk" transform="translate(35 55.3073)"><path d="M 18.5712 0 L 0 4.2829 L 0 24.6927 L 18.5712 15.922 L 18.5712 0 Z" fill="#759c3e" stroke="none"></path></g><g id="j3iknx7z1nl" transform="translate(60.1427 51.5219)"><path d="M 9.8573 11.9512 L 0 16.5951 L 0 2.2342 L 9.8573 0 L 9.8573 11.9512 Z" fill="#759c3e" stroke="none"></path></g><g id="j3iknx881nm" transform="translate(16.3258 0)"><path d="M 0 71.1317 L 18.6742 80 L 27.2645 40.1463 L 18.6742 0 L 0 8.8195 L 0 71.1317 Z" fill="#4b612c" stroke="none"></path></g><g id="j3iknx8b1nn" transform="translate(35 0.2927)"><path d="M 10.465 74.7513 L 0 79.7073 L 0 0 L 10.465 4.9561 L 10.465 74.7513 Z" fill="#759c3e" stroke="none"></path></g><g id="j3iknx8f1no" transform="translate(64.3555 15.3952)"><path d="M 0 50.7024 L 5.6445 48.078 L 5.6445 1.2293 L 0 0 L 0 50.7024 Z" fill="#759c3e" stroke="none"></path></g></g></symbol></svg>

<svg xmlns="http://www.w3.org/2000/svg" xmlns:v="http://vecta.io" xmlns:xlink="http://www.w3.org/1999/xlink" viewBox="0 0 74.375 85" stroke="#000" stroke-linecap="round" stroke-linejoin="round" fill="#fff" fill-rule="evenodd" font-family="Roboto" font-size="14" text-anchor="middle" width="300" height="300"><use xlink:href="#a" x="2.188" y="2.5"/><symbol id="a" overflow="visible" v:tags="aws, amazon, developer, tools, codecommit"><g class="Group.cls" v:size="74.375,85,2.1875,2.5"><path d="M9.754 56.088 0 51.454V4.604L9.754 0l13.442 28.81L9.754 56.088Z" fill="#4b612c" stroke="none" transform="translate(0 11.922)"/><path d="M32.219 8.205 0 0v56.088l32.219-8.517V8.205Z" fill="#759c3e" stroke="none" transform="translate(9.754 11.922)"/><path d="m0 28.507 7.498 2.39 4.728-15.443L7.498 0 0 1.024v27.483Z" fill="#4b612c" stroke="none" transform="translate(56.857 26.8)"/><path d="m11.907 15.22-7.498.897L0 15.24 7.694 0l4.213 15.22Z" fill="#3c4929" stroke="none" transform="translate(52.449 11.98)"/><path d="m0 15.278 7.694-.976V0L0 1.961v13.317Z" fill="#4b612c" stroke="none" transform="translate(52.449 11.941)"/><path d="M0 7.015 7.076 0l18.571 9.639-6.87 1.064L0 7.014Z" fill="#3c4929" stroke="none" transform="translate(27.924 15.054)"/><path d="M11.907.8 4.409 0 0 .78l7.694 15.337L11.907.8Z" fill="#b7ca9d" stroke="none" transform="translate(52.449 52)"/><path d="m0 0 7.694.976v14.36L0 13.318V0Z" fill="#4b612c" stroke="none" transform="translate(52.449 52.78)"/><path d="M18.571 24.693 0 20.41V0l18.571 8.849v15.844Z" fill="#759c3e" stroke="none" transform="translate(35)"/><path d="M9.857 4.683 0 0v14.303l9.857 2.234V4.683Z" fill="#759c3e" stroke="none" transform="translate(60.143 11.941)"/><path d="m0 3.688 7.076 13.375 18.571-16L18.777 0 0 3.688Z" fill="#b7ca9d" stroke="none" transform="translate(27.924 54.244)"/><path d="M18.571 0 0 4.283v20.41l18.571-8.771V0Z" fill="#759c3e" stroke="none" transform="translate(35 55.307)"/><path d="M9.857 11.951 0 16.595V2.235L9.857 0v11.951Z" fill="#759c3e" stroke="none" transform="translate(60.143 51.522)"/><path d="M0 71.132 18.674 80l8.59-39.854L18.675 0 0 8.82v62.312Z" fill="#4b612c" stroke="none" transform="translate(16.326)"/><path d="M10.465 74.751 0 79.707V0l10.465 4.956v69.795Z" fill="#759c3e" stroke="none" transform="translate(35 .293)"/><path d="m0 50.702 5.644-2.624V1.229L0 0v50.702Z" fill="#759c3e" stroke="none" transform="translate(64.356 15.395)"/></g></symbol></svg>
